X:1
T:Son of Man, 87.87 D
T:Son of Man, 87.87 D
T:Louis Adolphe Coerne, 1921
T:Public Domain Courtesy of the Cyber Hymnal™
C:Louis Adolphe Coerne, 1921
Z:Public Domain
Z:Courtesy of the Cyber Hymnal™
%%score ( 1 2 ) ( 3 4 )
L:1/8
Q:1/4=107
M:4/4
K:C
V:1 treble 
V:2 treble 
V:3 bass 
V:4 bass 
V:1
 [CE]3 [CE] [EG]2 [EG]2 x | [GA]2 [^FB]2 [=FA]2 [FG]2 | E2 [DG]2 [Cc]2 [DB]2 | %3
 [EA]2 [DB]2 (G2- [FG]2) | [CE]3 [CE] [EG]2 [EG]2 x | [GA]2 [^FB]2 [=FA]2 [FG]2 | %6
 E2 [E^F]2 [EG]2 [GA]2 | [GB]2 [DA]2 !fermata![DG]2 AG | [Ec]3 [EB] [EA]2 E2 x | %9
 [FA]4 [FG]2 A[GB] | [Gc]2 [Fd]2 [Ee]2 (dc) | d6 [FA][FG] | [Ec]3 G F2 [^CE]2 x | %13
 A4 [DA]2 [^DB][DA] | (GA) (Bc) [Fd]3 [FG] | [Ec]8 x6 |] %16
V:2
 x9 | x8 | E2 x6 | x4 B,4 | x9 | x8 | E2 x6 | x6 AG | x6 E2 x | x6 A x | x6 ^F2 | (F2 A2 G2) x2 | %12
 x3 G F2 x3 | (^C2 E2) x4 | E2 G2 x4 | x14 |] %16
V:3
 G,3 z G, [C,C]2 [G,,C]2 | [E,C]2 [_E,C]2 [D,C]2 [G,,B,]2 | [C,C]2 [B,,G,]2 (E,^F,) [B,,G,]2 | %3
 [C,G,]2 [D,^F,]2 G,4 | G,3 z G, [C,C]2 [G,,C]2 | [E,C]2 [_E,C]2 [D,C]2 [F,,B,]2 | %6
 [C,C]2 [A,,C]2 [E,B,]2 [_E,C]2 | [D,D]2 C2 !fermata![G,B,]2 A,G, | C3 z C [E,,E,C]2 [G,,C]2 | %9
 B,4 [G,B,]2 [F,D][F,D] | [E,C]2 [D,B,]2 (CB,) [D,A,]2 | (B,2 C2 B,2) [D,A,][G,B,] | %12
 C3 z C [A,^C]2 [G,A,]2 | [F,A,]4 [F,A,]2 [^F,A,][F,B,] | [G,C]2 [E,G,]2 (CB,A,)[G,B,] | %15
 [G,C]8 C,6 |] %16
V:4
 C,2 G,,2 x5 | x8 | x4 A,,2 x2 | x4 G,4 | C,2 G,,2 x5 | x8 | x8 | x2 (E,^F,) x A,G, x | %8
 C,2 [G,,G,]2 x5 | (D,2 E,F,) x4 | x4 C,2 x2 | [G,,G,]6 x2 | ^C,2 E,2 x5 | x8 | x4 G,,3 x | %15
 (C,2- G,,2 C,,4) x6 |] %16

